modules/zondicons/icons/book-reference.svg

<?xml version="1.0" encoding="UTF-8" standalone="no"?>
<svg width="20px" height="20px" viewBox="0 0 20 20" version="1.1" xmlns="http://www.w3.org/2000/svg" xmlns:xlink="http://www.w3.org/1999/xlink">
    <!-- Generator: Sketch 3.7.2 (28276) - http://www.bohemiancoding.com/sketch -->
    <title>book-reference</title>
    <desc>Created with Sketch.</desc>
    <defs></defs>
    <g id="Page-1" stroke="none" stroke-width="1" fill="none" fill-rule="evenodd">
        <g id="book-reference" fill="#000000">
            <path d="M2,1.99079514 C2,0.891309342 2.89706013,0 4.00585866,0 L14.9931545,0 C15.5492199,0 16,0.443864822 16,1 L16,2 L5.00247329,2 C4.44882258,2 4,2.44386482 4,3 C4,3.55228475 4.44994876,4 5.00684547,4 L16.9931545,4 C17.5492199,4 18,4.44463086 18,5.00087166 L18,18.0059397 C18,19.1072288 17.1054862,20 16.0059397,20 L3.99406028,20 C2.8927712,20 2,19.1017876 2,18.0092049 L2,1.99079514 Z M6,4 L10,4 L10,12 L8,10 L6,12 L6,4 Z" id="Combined-Shape"></path>
        </g>
    </g>
</svg>

<svg width="20" height="20" viewBox="0 0 20 20" xmlns="http://www.w3.org/2000/svg"><path d="M2 1.99C2 .892 2.897 0 4.006 0h10.987C15.55 0 16 .444 16 1v1H5.002a.999.999 0 1 0 .005 2h11.986C17.55 4 18 4.445 18 5v13.006A1.995 1.995 0 0 1 16.006 20H3.994A1.997 1.997 0 0 1 2 18.01V1.99zM6 4h4v8l-2-2-2 2V4z" fill="#000" fill-rule="evenodd"/></svg>
